icons/images/WebFolderOpen_16x_inverse.svg

<svg xmlns="http://www.w3.org/2000/svg" width="16" height="16"><style type="text/css">.icon-canvas-transparent{opacity:0;fill:#252526;} .icon-vs-out{fill:#252526;} .icon-vs-fg{fill:#252526;} .icon-folder{fill:#DCB67A;} .icon-vs-bg{fill:#C5C5C5;}</style><path class="icon-canvas-transparent" d="M16 16h-16v-16h16v16z" id="canvas"/><path class="icon-vs-out" d="M16 2.969v9c0 .617-.227 1.102-.57 1.435-.57.543-1.43.565-1.43.565h-4.234c-1.008 1.239-2.544 2.031-4.266 2.031-3.038 0-5.5-2.462-5.5-5.5 0-.586.093-1.149.263-1.678l-.263-.657v-1.196h1v-2c0-1.299 1.03-2 2-2h2.884l1-2h7.116c.995 0 2 .697 2 2z" id="outline"/><g id="iconBg"><path class="icon-folder" d="M10.395 8c.384.751.605 1.599.605 2.5s-.221 1.749-.605 2.5h3.605l-3-5h-.605z"/><path class="icon-folder" d="M14 2h-6.5l-1 2h-3.5c.236 0-1 0-1 1v1.257c.306-.253.643-.469 1-.652v-.605h4l1-2h6v9.984s1 .016 1-.984v-9c0-1-1-1-1-1z"/></g><path class="icon-vs-fg" d="M8 2.969l-1 2h-4v.636c.751-.384 1.599-.605 2.5-.605 2.124 0 3.963 1.206 4.88 2.969h.62l3 5v-10h-6z" id="iconFg"/><g id="colorImportance"><path class="icon-vs-bg" d="M10 10.5l-.008-.152c-.081-2.414-2.057-4.348-4.492-4.348-2.485 0-4.5 2.015-4.5 4.5l.02.389.045.341.002.013c.313 1.891 1.803 3.38 3.696 3.691l.013.002.337.044.387.02.439-.021c2.279-.223 4.061-2.142 4.061-4.479zm-2.592-1.067c.467-.073.961-.198 1.489-.388.191.445.299.937.299 1.455l-.012.24c-.667.291-1.268.465-1.831.555.07-.393.108-.768.104-1.119-.002-.259-.023-.503-.049-.743zm1.145-1.017c-.442.153-.857.258-1.255.319-.138-.661-.354-1.233-.589-1.725.757.262 1.4.759 1.844 1.406zm-3.053 5.78l-.324-.018c-.322-.717-.57-1.43-.725-2.124.336.033.686.057 1.045.059l.259.002c.224 0 .45-.006.678-.018-.196.638-.487 1.335-.87 2.095l-.063.004zm.004-2.782c-.41-.006-.803-.035-1.182-.079-.055-.392-.082-.778-.078-1.153.002-.247.02-.507.043-.737.387.043.789.055 1.209.055h.259c.314 0 .632.012.956-.012.025.219.044.451.046.683.004.372-.044.778-.135 1.208-.376.025-.744.037-1.118.035zm-.004-4.61l.313.016c.301.521.607 1.186.786 1.996-.368.026-.729.03-1.095.026-.386-.004-.76-.03-1.119-.071.15-.782.398-1.424.645-1.934.154-.02.31-.033.47-.033zm-1.34.254c-.186.465-.355 1-.471 1.613-.443-.079-.849-.176-1.222-.281.417-.598 1.006-1.065 1.693-1.332zm-2.356 3.442c0-.525.112-1.025.31-1.481.44.131.931.254 1.478.346-.027.262-.047.528-.049.811-.004.342.021.694.063 1.051-.691-.126-1.288-.299-1.788-.467l-.014-.26zm.151 1.044c.513.157 1.102.31 1.765.415.132.673.349 1.359.632 2.053-1.153-.377-2.052-1.301-2.397-2.468zm4.436 2.54c.35-.737.62-1.424.795-2.054.574-.073 1.186-.22 1.856-.472-.373 1.245-1.384 2.213-2.651 2.526z"/></g></svg>

<?xml version="1.0" encoding="utf-8"?>
<!-- Generator: Adobe Illustrator 26.5.3, SVG Export Plug-In . SVG Version: 6.00 Build 0)  -->
<svg version="1.1" id="Layer_1" xmlns="http://www.w3.org/2000/svg" xmlns:xlink="http://www.w3.org/1999/xlink" x="0px" y="0px"
	 viewBox="0 0 16 16" style="enable-background:new 0 0 16 16;" xml:space="preserve">
<style type="text/css">
	.st0{fill:#252526;fill-opacity:0;}
	.st1{fill:#252526;}
	.st2{fill:#FFB95A;}
	.st3{fill:#C5C5C5;}
</style>
<path id="canvas" class="st0" d="M16,16H0V0h16V16z"/>
<path id="outline" class="st1" d="M16,3v9c0,0.6-0.2,1.1-0.6,1.4C14.9,13.9,14,14,14,14H9.8c-1,1.2-2.5,2-4.3,2
	c-3,0-5.5-2.5-5.5-5.5c0-0.6,0.1-1.1,0.3-1.7L0,8.2V7h1V5c0-1.3,1-2,2-2h2.9l1-2H14C15,1,16,1.7,16,3z"/>
<g id="iconBg">
	<path class="st2" d="M10.4,8c0.4,0.8,0.6,1.6,0.6,2.5s-0.2,1.7-0.6,2.5H14l-3-5H10.4z"/>
	<path class="st2" d="M14,2H7.5l-1,2H3c0.2,0-1,0-1,1v1.3C2.3,6,2.6,5.8,3,5.6V5h4l1-2h6v10c0,0,1,0,1-1V3C15,2,14,2,14,2z"/>
</g>
<path id="iconFg" class="st1" d="M8,3L7,5H3v0.6C3.8,5.2,4.6,5,5.5,5c2.1,0,4,1.2,4.9,3H11l3,5V3C14,3,8,3,8,3z"/>
<g id="colorImportance">
	<path class="st3" d="M10,10.5l0-0.2C9.9,7.9,7.9,6,5.5,6C3,6,1,8,1,10.5l0,0.4l0,0.3l0,0c0.3,1.9,1.8,3.4,3.7,3.7l0,0l0.3,0l0.4,0
		l0.4,0C8.2,14.8,10,12.8,10,10.5z M7.4,9.4c0.5-0.1,1-0.2,1.5-0.4c0.2,0.4,0.3,0.9,0.3,1.5l0,0.2c-0.7,0.3-1.3,0.5-1.8,0.6
		c0.1-0.4,0.1-0.8,0.1-1.1C7.5,9.9,7.4,9.7,7.4,9.4z M8.6,8.4C8.1,8.6,7.7,8.7,7.3,8.7C7.2,8.1,6.9,7.5,6.7,7
		C7.5,7.3,8.1,7.8,8.6,8.4z M5.5,14.2l-0.3,0c-0.3-0.7-0.6-1.4-0.7-2.1c0.3,0,0.7,0.1,1,0.1l0.3,0c0.2,0,0.4,0,0.7,0
		C6.2,12.7,5.9,13.4,5.5,14.2L5.5,14.2z M5.5,11.4c-0.4,0-0.8,0-1.2-0.1c-0.1-0.4-0.1-0.8-0.1-1.2c0-0.2,0-0.5,0-0.7
		c0.4,0,0.8,0.1,1.2,0.1h0.3c0.3,0,0.6,0,1,0c0,0.2,0,0.5,0,0.7c0,0.4,0,0.8-0.1,1.2C6.2,11.4,5.9,11.4,5.5,11.4z M5.5,6.8l0.3,0
		c0.3,0.5,0.6,1.2,0.8,2c-0.4,0-0.7,0-1.1,0c-0.4,0-0.8,0-1.1-0.1C4.5,8,4.8,7.3,5,6.8C5.2,6.8,5.3,6.8,5.5,6.8z M4.2,7.1
		C4,7.5,3.8,8.1,3.7,8.7C3.2,8.6,2.8,8.5,2.5,8.4C2.9,7.8,3.5,7.3,4.2,7.1z M1.8,10.5c0-0.5,0.1-1,0.3-1.5C2.6,9.1,3,9.3,3.6,9.4
		c0,0.3,0,0.5,0,0.8c0,0.3,0,0.7,0.1,1.1c-0.7-0.1-1.3-0.3-1.8-0.5C1.8,10.8,1.8,10.5,1.8,10.5z M2,11.5c0.5,0.2,1.1,0.3,1.8,0.4
		c0.1,0.7,0.3,1.4,0.6,2.1C3.2,13.6,2.3,12.7,2,11.5z M6.4,14.1C6.7,13.3,7,12.7,7.2,12C7.8,12,8.4,11.8,9,11.6
		C8.7,12.8,7.7,13.8,6.4,14.1z"/>
</g>
</svg>
